static/img/kroki/6dedecbc263fd776b037f6cf1d1f8ae0.svg

<?xml version="1.0" encoding="us-ascii" standalone="no"?><svg xmlns="http://www.w3.org/2000/svg" xmlns:xlink="http://www.w3.org/1999/xlink" contentStyleType="text/css" height="213px" preserveAspectRatio="none" style="width:371px;height:213px;" version="1.1" viewBox="0 0 371 213" width="371px" zoomAndPan="magnify"><defs/><g><!--class dockerhub_repository--><g id="elem_dockerhub_repository"><rect codeLine="23" fill="#3D176E" height="39.7891" id="dockerhub_repository" rx="2.5" ry="2.5" style="stroke:#000D19;stroke-width:0.5;" width="222" x="98.5" y="167.79"/><ellipse cx="113.5" cy="187.6845" fill="#ADD1B2" rx="11" ry="11" style="stroke:#181818;stroke-width:1.0;"/><path d="M116.4688,193.3252 Q115.8906,193.622 115.25,193.7627 Q114.6094,193.9189 113.9063,193.9189 Q111.4063,193.9189 110.0781,192.2783 Q108.7656,190.622 108.7656,187.497 Q108.7656,184.372 110.0781,182.7158 Q111.4063,181.0595 113.9063,181.0595 Q114.6094,181.0595 115.25,181.2158 Q115.9063,181.372 116.4688,181.6689 L116.4688,184.3877 Q115.8438,183.8095 115.25,183.5439 Q114.6563,183.2627 114.0313,183.2627 Q112.6875,183.2627 112,184.3408 Q111.3125,185.4033 111.3125,187.497 Q111.3125,189.5908 112,190.6689 Q112.6875,191.7314 114.0313,191.7314 Q114.6563,191.7314 115.25,191.4658 Q115.8438,191.1845 116.4688,190.6064 L116.4688,193.3252 Z " fill="#000000"/><text fill="#D9B8FF" font-family="Helvetica" font-size="17" lengthAdjust="spacing" textLength="180" x="132.5" y="193.5698">dockerhub_repository</text></g><!--class dockerhub_resource--><g id="elem_dockerhub_resource"><rect codeLine="26" fill="#3D176E" height="39.7891" id="dockerhub_resource" rx="2.5" ry="2.5" style="stroke:#000D19;stroke-width:0.5;" width="209" x="7" y="7"/><ellipse cx="22" cy="26.8945" fill="#ADD1B2" rx="11" ry="11" style="stroke:#181818;stroke-width:1.0;"/><path d="M24.9688,32.5352 Q24.3906,32.832 23.75,32.9727 Q23.1094,33.1289 22.4063,33.1289 Q19.9063,33.1289 18.5781,31.4883 Q17.2656,29.832 17.2656,26.707 Q17.2656,23.582 18.5781,21.9258 Q19.9063,20.2695 22.4063,20.2695 Q23.1094,20.2695 23.75,20.4258 Q24.4063,20.582 24.9688,20.8789 L24.9688,23.5977 Q24.3438,23.0195 23.75,22.7539 Q23.1563,22.4727 22.5313,22.4727 Q21.1875,22.4727 20.5,23.5508 Q19.8125,24.6133 19.8125,26.707 Q19.8125,28.8008 20.5,29.8789 Q21.1875,30.9414 22.5313,30.9414 Q23.1563,30.9414 23.75,30.6758 Q24.3438,30.3945 24.9688,29.8164 L24.9688,32.5352 Z " fill="#000000"/><text fill="#D9B8FF" font-family="Helvetica" font-size="17" lengthAdjust="spacing" textLength="167" x="41" y="32.7798">dockerhub_resource</text></g><!--class resource--><g id="elem_resource"><rect codeLine="29" fill="#3D176E" height="39.7891" id="resource" rx="2.5" ry="2.5" style="stroke:#000D19;stroke-width:0.5;" width="113" x="251" y="7"/><ellipse cx="266" cy="26.8945" fill="#ADD1B2" rx="11" ry="11" style="stroke:#181818;stroke-width:1.0;"/><path d="M268.9688,32.5352 Q268.3906,32.832 267.75,32.9727 Q267.1094,33.1289 266.4063,33.1289 Q263.9063,33.1289 262.5781,31.4883 Q261.2656,29.832 261.2656,26.707 Q261.2656,23.582 262.5781,21.9258 Q263.9063,20.2695 266.4063,20.2695 Q267.1094,20.2695 267.75,20.4258 Q268.4063,20.582 268.9688,20.8789 L268.9688,23.5977 Q268.3438,23.0195 267.75,22.7539 Q267.1563,22.4727 266.5313,22.4727 Q265.1875,22.4727 264.5,23.5508 Q263.8125,24.6133 263.8125,26.707 Q263.8125,28.8008 264.5,29.8789 Q265.1875,30.9414 266.5313,30.9414 Q267.1563,30.9414 267.75,30.6758 Q268.3438,30.3945 268.9688,29.8164 L268.9688,32.5352 Z " fill="#000000"/><text fill="#D9B8FF" font-family="Helvetica" font-size="17" lengthAdjust="spacing" textLength="71" x="285" y="32.7798">resource</text></g><!--reverse link dockerhub_resource to dockerhub_repository--><g id="link_dockerhub_resource_dockerhub_repository"><path codeLine="32" d="M132.775,62.3667 C151.615,92.8867 178.77,136.9 197.64,167.46 " fill="none" id="dockerhub_resource-backto-dockerhub_repository" style="stroke:#FFAF37;stroke-width:2.0;"/><polygon fill="none" points="123.32,47.05,127.6694,65.5184,137.8806,59.2151,123.32,47.05" style="stroke:#FFAF37;stroke-width:2.0;"/></g><!--reverse link resource to dockerhub_repository--><g id="link_resource_dockerhub_repository"><path codeLine="33" d="M286.225,62.3667 C267.385,92.8867 240.23,136.9 221.36,167.46 " fill="none" id="resource-backto-dockerhub_repository" style="stroke:#FFAF37;stroke-width:2.0;"/><polygon fill="none" points="295.68,47.05,281.1194,59.2151,291.3306,65.5184,295.68,47.05" style="stroke:#FFAF37;stroke-width:2.0;"/></g><!--SRC=[ZT1DJuD040RWExzYavv9m4OfYPVQnEYbCTQxMTZPiW5soEnWWn__NR5gja1Rh_C-sNbd2wD0GDrm9sgeCo0NkDBOHfAinP88TokiaCHCQwddoJ2yHSjdmLhM8EwWUW4skHoAfyBafGNdn8KNtSYyt1AsLksVPvBMVKLWsLEhIZgtP2QJjGnU6PLc2ws7SlZeRAxYv0f634a1_P0eYbIS3idPLIVl_XCRymeYzZzjZGoZcgCLt-faorvu9KU7_kP7Epv8fOpTYajlzhZlH1ReOBuffC9ThxMidB_6CH0WTmsiHbT1kb0wcSJtnt2Gzryd5EObKD5cpmGDEiD8dNWBWe-9t65BEVZfuMp2Nh-7OJYv9FYF-GG0]--></g></svg>

<svg xmlns="http://www.w3.org/2000/svg" width="371" height="213" viewBox="0 0 371 213"><rect width="222" height="39.789" x="98.5" y="167.79" fill="#3D176E" rx="2.5" ry="2.5" style="stroke:#000d19;stroke-width:.5"/><circle cx="113.5" cy="187.685" r="11" fill="#ADD1B2" style="stroke:#181818;stroke-width:1"/><path d="M116.469 193.325q-.578.297-1.219.438-.64.156-1.344.156-2.5 0-3.828-1.64-1.312-1.657-1.312-4.782t1.312-4.781q1.328-1.656 3.828-1.656.703 0 1.344.156.656.156 1.219.453v2.719q-.625-.578-1.219-.844-.594-.281-1.219-.281-1.344 0-2.031 1.078-.687 1.062-.687 3.156t.687 3.172q.688 1.062 2.031 1.062.625 0 1.219-.265.594-.281 1.219-.86z"/><text x="132.5" y="193.57" fill="#D9B8FF" font-family="Helvetica" font-size="17" textLength="180">dockerhub_repository</text><rect width="209" height="39.789" x="7" y="7" fill="#3D176E" rx="2.5" ry="2.5" style="stroke:#000d19;stroke-width:.5"/><circle cx="22" cy="26.895" r="11" fill="#ADD1B2" style="stroke:#181818;stroke-width:1"/><path d="M24.969 32.535q-.578.297-1.219.438-.64.156-1.344.156-2.5 0-3.828-1.64-1.312-1.657-1.312-4.782t1.312-4.781q1.328-1.656 3.828-1.656.703 0 1.344.156.656.156 1.219.453v2.719q-.625-.578-1.219-.844-.594-.281-1.219-.281-1.343 0-2.031 1.078-.687 1.062-.687 3.156t.687 3.172q.688 1.062 2.031 1.062.625 0 1.219-.265.594-.281 1.219-.86z"/><text x="41" y="32.78" fill="#D9B8FF" font-family="Helvetica" font-size="17" textLength="167">dockerhub_resource</text><rect width="113" height="39.789" x="251" y="7" fill="#3D176E" rx="2.5" ry="2.5" style="stroke:#000d19;stroke-width:.5"/><circle cx="266" cy="26.895" r="11" fill="#ADD1B2" style="stroke:#181818;stroke-width:1"/><path d="M268.969 32.535q-.578.297-1.219.438-.64.156-1.344.156-2.5 0-3.828-1.64-1.312-1.657-1.312-4.782t1.312-4.781q1.328-1.656 3.828-1.656.703 0 1.344.156.656.156 1.219.453v2.719q-.625-.578-1.219-.844-.594-.281-1.219-.281-1.344 0-2.031 1.078-.687 1.062-.687 3.156t.687 3.172q.688 1.062 2.031 1.062.625 0 1.219-.265.594-.281 1.219-.86z"/><text x="285" y="32.78" fill="#D9B8FF" font-family="Helvetica" font-size="17" textLength="71">resource</text><path fill="none" d="M132.775 62.367c18.84 30.52 45.995 74.533 64.865 105.093M123.32 47.05l4.35 18.468 10.21-6.303zm162.905 15.317c-18.84 30.52-45.995 74.533-64.865 105.093m74.32-120.41-14.56 12.165 10.21 6.303z" style="stroke:#ffaf37;stroke-width:2"/></svg>
